img/icon-right-arrow.svg

<svg width="7" height="12" fill="none" xmlns="http://www.w3.org/2000/svg"><path d="M6.84111 5.65875L.932395.148752C.829699.05349.690626 0 .545642 0 .400659 0 .261586.05349.15889.148752.108543.195234.0685817.250534.041311.311464.0140403.372393 0 .437746 0 .503752 0 .569758.0140403.635111.041311.69604.0685817.75697.108543.812271.15889.858752L5.6916 5.99875.15889 11.1688c-.050347.0464-.0903083.1017-.117579.1627C.0140403 11.3924 0 11.4577 0 11.5238c0 .066.0140403.1313.041311.1922.0272707.061.067232.1163.117579.1628.107536.0848.246052.1277.386752.12.070449.0008.140298-.0122.205056-.038.064757-.0258.12299-.064.170953-.112L6.84111 6.36875c.05035-.04648.09031-.10178.11758-.16271C6.98596 6.14511 7 6.07976 7 6.01375c0-.066-.01404-.13136-.04131-.19229-.02727-.06093-.06723-.11623-.11758-.16271z" fill="#fff"/></svg>

<svg width="7" height="12" viewBox="0 0 7 12" fill="none" xmlns="http://www.w3.org/2000/svg">
<path d="M6.84111 5.65875L0.932395 0.148752C0.829699 0.05349 0.690626 0 0.545642 0C0.400659 0 0.261586 0.05349 0.15889 0.148752C0.108543 0.195234 0.0685817 0.250534 0.041311 0.311464C0.0140403 0.372393 0 0.437746 0 0.503752C0 0.569758 0.0140403 0.635111 0.041311 0.69604C0.0685817 0.75697 0.108543 0.812271 0.15889 0.858752L5.6916 5.99875L0.15889 11.1688C0.108543 11.2152 0.0685817 11.2705 0.041311 11.3315C0.0140403 11.3924 0 11.4577 0 11.5238C0 11.5898 0.0140403 11.6551 0.041311 11.716C0.0685817 11.777 0.108543 11.8323 0.15889 11.8788C0.266426 11.9636 0.404942 12.0065 0.545642 11.9988C0.616091 11.9996 0.68594 11.9866 0.750698 11.9608C0.815455 11.935 0.873688 11.8968 0.921651 11.8488L6.84111 6.36875C6.89146 6.32227 6.93142 6.26697 6.95869 6.20604C6.98596 6.14511 7 6.07976 7 6.01375C7 5.94775 6.98596 5.88239 6.95869 5.82146C6.93142 5.76053 6.89146 5.70523 6.84111 5.65875Z" fill="white"/>
</svg>
